<?xml version='1.0' encoding='UTF-8'?>
<map version="1.10" tiledversion="1.10.2" orientation="isometric" renderorder="right-down" width="16" height="16" tilewidth="64" tileheight="32" infinite="0" nextlayerid="7" nextobjectid="21"><properties><property name="scene_id" value="back_mountain_cliff_cave_night" /><property name="scene_name" value="后山崖洞" /><property name="variant" value="night" /><property name="mood" value="silent_night" /><property name="chapter_state" value="prologue_massacre_trigger" /></properties><tileset firstgid="1" source="cliff_cave_ground_tiles.tsx" /><layer id="1" name="Ground" width="16" height="16"><data encoding="csv">
0,0,0,0,0,0,0,0,0,0,0,0,0,0,0,0,0,0,0,0,0,0,0,0,0,0,0,0,0,0,0,0,0,0,0,0,0,0,0,0,0,0,0,0,0,0,0,0,0,0,1,1,1,1,1,1,1,0,0,0,0,0,0,0,0,0,1,1,1,1,1,1,1,0,0,0,0,0,0,0,0,0,1,1,1,1,1,1,1,0,0,0,0,0,0,0,0,0,1,1,1,1,1,1,1,1,1,1,1,1,1,0,1,1,1,1,1,1,1,1,1,1,1,1,1,1,1,0,1,1,1,1,1,1,1,1,1,1,1,1,1,1,1,0,1,1,1,1,1,1,1,1,1,1,1,1,1,1,1,0,0,0,1,1,1,1,1,1,1,1,1,1,1,1,1,0,0,0,1,1,1,1,1,1,1,1,1,1,1,1,1,0,0,0,0,0,0,0,0,0,0,1,1,1,1,1,1,0,0,0,0,0,0,0,0,0,0,1,1,1,1,1,1,0,0,0,0,0,0,0,0,0,0,0,0,0,0,0,0,0,0,0,0,0,0,0,0,0,0,0,0,0,0,0,0,0
</data></layer><layer id="2" name="Terrain" width="16" height="16"><data encoding="csv">
0,0,0,0,0,0,0,0,0,0,0,0,0,0,0,0,0,0,0,0,0,0,0,0,0,0,0,0,0,0,0,0,0,0,0,0,0,0,0,0,0,0,0,0,0,0,0,0,0,0,0,0,0,0,0,0,0,0,0,0,0,0,0,0,0,0,0,0,3,3,16,16,0,0,0,0,0,0,0,0,0,0,0,0,0,0,0,0,0,0,0,0,0,0,0,0,0,0,0,0,0,0,0,0,0,0,0,0,0,0,0,0,0,0,0,0,0,0,0,0,0,0,0,0,0,0,0,0,0,0,0,14,14,21,0,0,0,0,15,15,18,18,0,0,0,0,0,0,0,0,0,0,19,19,0,0,0,0,0,0,0,0,0,0,0,0,0,0,0,0,0,0,0,0,0,0,0,0,0,0,0,0,0,0,0,0,0,0,0,0,0,0,0,0,0,0,0,0,0,0,0,0,0,0,0,0,0,0,0,0,0,0,0,0,0,0,0,6,6,23,23,0,0,0,0,0,0,0,0,0,0,0,0,0,0,0,0,0,0,0,0,0,0,0,0,0,0,0,0,0,0,0,0,0,0,0
</data></layer><objectgroup id="3" name="Structures"><object id="1" name="wine_jars_group" type="prop" x="384.0" y="160.0" width="64" height="32"><properties><property name="image" value="../props/wine_jars_group.png" /><property name="anchor" value="bottom_tile_baseline" /><property name="variant_state" value="night" /><property name="mood" value="silent_night" /><property name="tile_x" type="int" value="6" /><property name="tile_y" type="int" value="5" /></properties></object><object id="2" name="wine_jar_single" type="prop" x="448.0" y="160.0" width="64" height="32"><properties><property name="image" value="../props/wine_jar_single.png" /><property name="anchor" value="bottom_tile_baseline" /><property name="variant_state" value="night" /><property name="mood" value="silent_night" /><property name="tile_x" type="int" value="7" /><property name="tile_y" type="int" value="5" /></properties></object><object id="3" name="storage_shelf" type="prop" x="320.0" y="288.0" width="64" height="32"><properties><property name="image" value="../props/storage_shelf.png" /><property name="anchor" value="bottom_tile_baseline" /><property name="variant_state" value="night" /><property name="mood" value="silent_night" /><property name="tile_x" type="int" value="5" /><property name="tile_y" type="int" value="9" /></properties></object><object id="4" name="bamboo_basket_herbs" type="prop" x="256.0" y="320.0" width="64" height="32"><properties><property name="image" value="../props/bamboo_basket_herbs.png" /><property name="anchor" value="bottom_tile_baseline" /><property name="variant_state" value="night" /><property name="mood" value="silent_night" /><property name="tile_x" type="int" value="4" /><property name="tile_y" type="int" value="10" /></properties></object><object id="5" name="cloth_bundle" type="prop" x="384.0" y="320.0" width="64" height="32"><properties><property name="image" value="../props/cloth_bundle.png" /><property name="anchor" value="bottom_tile_baseline" /><property name="variant_state" value="night" /><property name="mood" value="silent_night" /><property name="tile_x" type="int" value="6" /><property name="tile_y" type="int" value="10" /></properties></object><object id="6" name="wooden_crate_low" type="prop" x="320.0" y="320.0" width="64" height="32"><properties><property name="image" value="../props/wooden_crate_low.png" /><property name="anchor" value="bottom_tile_baseline" /><property name="variant_state" value="night" /><property name="mood" value="silent_night" /><property name="tile_x" type="int" value="5" /><property name="tile_y" type="int" value="10" /></properties></object><object id="7" name="rest_mat" type="prop" x="704.0" y="352.0" width="64" height="32"><properties><property name="image" value="../props/rest_mat.png" /><property name="anchor" value="bottom_tile_baseline" /><property name="variant_state" value="night" /><property name="mood" value="silent_night" /><property name="tile_x" type="int" value="11" /><property name="tile_y" type="int" value="11" /></properties></object><object id="8" name="small_stool" type="prop" x="768.0" y="352.0" width="64" height="32"><properties><property name="image" value="../props/small_stool.png" /><property name="anchor" value="bottom_tile_baseline" /><property name="variant_state" value="night" /><property name="mood" value="silent_night" /><property name="tile_x" type="int" value="12" /><property name="tile_y" type="int" value="11" /></properties></object><object id="9" name="sister_mark" type="prop" x="832.0" y="256.0" width="64" height="32"><properties><property name="image" value="../props/sister_mark.png" /><property name="anchor" value="bottom_tile_baseline" /><property name="variant_state" value="night" /><property name="mood" value="silent_night" /><property name="tile_x" type="int" value="13" /><property name="tile_y" type="int" value="8" /></properties></object><object id="10" name="oil_lamp_dim" type="prop" x="768.0" y="288.0" width="64" height="32"><properties><property name="image" value="../props/oil_lamp_dim.png" /><property name="anchor" value="bottom_tile_baseline" /><property name="variant_state" value="night" /><property name="mood" value="silent_night" /><property name="tile_x" type="int" value="12" /><property name="tile_y" type="int" value="9" /></properties></object></objectgroup><layer id="4" name="Overlay" width="16" height="16"><data encoding="csv">
0,0,0,0,0,0,0,0,0,0,0,0,0,0,0,0,0,0,0,0,0,0,0,0,0,0,0,0,0,0,0,0,0,0,0,0,0,0,0,0,0,0,0,0,0,0,0,0,0,0,0,13,13,13,13,0,0,0,0,0,0,0,0,0,0,0,0,0,0,0,0,0,0,0,0,0,0,0,0,0,0,0,0,0,0,0,0,0,0,0,0,0,0,0,0,0,0,0,0,0,0,0,0,0,0,0,13,13,13,13,0,0,0,0,0,0,0,0,0,0,0,0,0,0,0,0,0,0,0,0,0,0,0,0,0,0,0,0,0,0,0,0,0,0,0,0,0,0,0,0,0,0,0,0,0,0,0,0,0,0,0,0,0,0,0,0,0,0,0,0,0,0,0,0,0,0,0,0,0,0,0,0,0,0,0,0,0,0,0,0,0,0,0,0,0,0,0,0,0,0,0,0,0,0,0,0,0,0,0,0,0,0,0,0,0,0,0,0,0,0,0,0,0,0,0,0,0,0,0,0,0,0,0,0,0,0,0,0,0,0,0,0,0,0,0,0,0,0,0,0,0,0,0,0,0,0
</data></layer><layer id="5" name="Collision" width="16" height="16" visible="0" opacity="0.35"><data encoding="csv">
9,9,9,9,9,9,9,9,9,9,9,9,9,9,9,9,9,9,9,9,9,9,9,9,9,9,9,9,9,9,9,9,9,9,9,9,9,9,9,9,9,9,9,9,9,9,9,9,9,9,11,0,0,0,0,0,0,9,9,9,9,9,9,9,9,9,0,0,0,0,0,0,0,9,9,9,9,9,9,9,9,9,0,0,0,11,11,0,0,9,9,9,9,9,9,9,9,9,0,0,0,0,0,0,0,0,0,11,11,0,0,9,0,0,0,0,0,0,0,0,0,0,0,0,0,0,0,9,0,0,0,0,0,0,0,0,0,0,0,0,0,0,0,9,0,0,0,0,11,11,11,0,0,0,0,0,0,0,0,9,9,9,0,0,0,11,0,0,0,0,0,0,0,0,0,9,9,9,0,0,0,0,0,0,0,0,0,0,0,0,0,9,9,9,9,9,9,9,9,9,9,0,0,0,0,0,0,9,9,9,9,9,9,9,9,9,9,0,0,0,0,0,0,9,9,9,9,9,9,9,9,9,9,9,9,9,9,9,9,9,9,9,9,9,9,9,9,9,9,9,9,9,9,9,9,9
</data></layer><objectgroup id="6" name="LogicMarkers"><object id="11" name="exit_to_back_mountain" type="exit" x="64.0" y="256.0" width="64" height="32"><properties><property name="id" value="exit_to_back_mountain" /><property name="type" value="exit" /><property name="enabled" type="bool" value="true" /><property name="interaction_id" value="night.exit_to_back_mountain" /><property name="chapter_state" value="prologue_massacre_trigger" /><property name="mood" value="silent_night" /><property name="target_scene" value="res://scenes/back_mountain_path/BackMountainPath.tscn" /><property name="entry_marker" value="entry_from_cliff_cave" /><property name="tile_x" type="int" value="1" /><property name="tile_y" type="int" value="8" /></properties></object><object id="12" name="wine_pickup" type="interactable" x="448.0" y="192.0" width="64" height="32"><properties><property name="id" value="wine_pickup" /><property name="type" value="interactable" /><property name="enabled" type="bool" value="true" /><property name="interaction_id" value="night.wine_pickup" /><property name="chapter_state" value="prologue_massacre_trigger" /><property name="mood" value="silent_night" /><property name="tile_x" type="int" value="7" /><property name="tile_y" type="int" value="6" /></properties></object><object id="13" name="storage_shelf" type="inspect" x="448.0" y="288.0" width="64" height="32"><properties><property name="id" value="storage_shelf" /><property name="type" value="inspect" /><property name="enabled" type="bool" value="true" /><property name="interaction_id" value="night.storage_shelf" /><property name="chapter_state" value="prologue_massacre_trigger" /><property name="mood" value="silent_night" /><property name="tile_x" type="int" value="7" /><property name="tile_y" type="int" value="9" /></properties></object><object id="14" name="memory_marker" type="inspect" x="832.0" y="256.0" width="64" height="32"><properties><property name="id" value="memory_marker" /><property name="type" value="inspect" /><property name="enabled" type="bool" value="true" /><property name="interaction_id" value="night.memory_marker" /><property name="chapter_state" value="prologue_massacre_trigger" /><property name="mood" value="silent_night" /><property name="tile_x" type="int" value="13" /><property name="tile_y" type="int" value="8" /></properties></object><object id="15" name="rest_spot" type="trigger" x="704.0" y="352.0" width="64" height="32"><properties><property name="id" value="rest_spot" /><property name="type" value="trigger" /><property name="enabled" type="bool" value="true" /><property name="interaction_id" value="night.rest_spot" /><property name="chapter_state" value="prologue_massacre_trigger" /><property name="mood" value="silent_night" /><property name="tile_x" type="int" value="11" /><property name="tile_y" type="int" value="11" /></properties></object><object id="16" name="blocked_rock" type="blocker" x="128.0" y="96.0" width="64" height="32"><properties><property name="id" value="blocked_rock" /><property name="type" value="blocker" /><property name="enabled" type="bool" value="true" /><property name="interaction_id" value="night.blocked_rock" /><property name="chapter_state" value="prologue_massacre_trigger" /><property name="mood" value="silent_night" /><property name="tile_x" type="int" value="2" /><property name="tile_y" type="int" value="3" /></properties></object><object id="17" name="blocked_storage" type="blocker" x="320.0" y="320.0" width="64" height="32"><properties><property name="id" value="blocked_storage" /><property name="type" value="blocker" /><property name="enabled" type="bool" value="true" /><property name="interaction_id" value="night.blocked_storage" /><property name="chapter_state" value="prologue_massacre_trigger" /><property name="mood" value="silent_night" /><property name="tile_x" type="int" value="5" /><property name="tile_y" type="int" value="10" /></properties></object><object id="20" name="entry_from_path" type="entry" x="64.0" y="256.0" width="64" height="32"><properties><property name="id" value="entry_from_path" /><property name="type" value="entry" /><property name="enabled" type="bool" value="true" /><property name="tile_x" type="int" value="1" /><property name="tile_y" type="int" value="8" /></properties></object></objectgroup></map>