<?xml version='1.0' encoding='UTF-8'?><map version="1.10" tiledversion="1.10.2" orientation="isometric" renderorder="right-down" width="16" height="16" tilewidth="64" tileheight="32" infinite="0" nextlayerid="7" nextobjectid="20"><properties><property name="scene_id" value="study_night" /><property name="scene_name" value="书房" /><property name="variant" value="night" /><property name="mood" value="silent_night" /><property name="chapter_state" value="prologue_massacre_trigger" /></properties><tileset firstgid="1" source="study_ground_tiles.tsx" /><layer id="1" name="Ground" width="16" height="16"><data encoding="csv">
0,0,0,0,0,0,0,0,0,0,0,0,0,0,0,0,0,0,0,0,0,0,0,0,0,0,0,0,0,0,0,0,0,0,0,0,0,0,0,0,0,0,0,0,0,0,0,0,0,0,0,0,0,1,1,1,1,1,1,0,0,0,0,0,0,0,0,0,1,1,1,1,1,1,1,1,0,0,0,0,0,0,0,0,1,1,1,1,1,1,1,1,0,0,0,0,0,0,0,1,1,1,1,1,1,1,1,1,1,0,0,0,0,0,0,1,1,1,1,1,1,1,1,1,1,0,0,0,0,0,0,1,1,1,1,1,1,1,1,1,1,0,0,0,0,0,0,0,1,1,1,1,1,1,1,1,0,0,0,0,0,0,0,0,1,1,1,1,1,1,1,1,0,0,0,0,0,0,0,0,0,1,1,1,1,1,1,0,0,0,0,0,0,0,0,0,0,0,0,0,0,0,0,0,0,0,0,0,0,0,0,0,0,0,0,0,0,0,0,0,0,0,0,0,0,0,0,0,0,0,0,0,0,0,0,0,0,0,0,0,0,0,0,0,0,0,0,0,0,0,0,0,0,0,0,0
</data></layer><layer id="2" name="Terrain" width="16" height="16"><data encoding="csv">
0,0,0,0,0,0,0,0,0,0,0,0,0,0,0,0,0,0,0,0,0,0,0,0,0,0,0,0,0,0,0,0,0,0,0,0,0,0,0,0,0,0,0,0,0,0,0,0,0,0,0,0,0,0,0,0,0,0,0,0,0,0,0,0,0,0,0,0,0,7,0,0,0,0,7,0,0,0,0,0,0,0,0,0,0,0,0,0,0,0,0,0,0,0,0,0,0,0,0,0,8,0,0,0,0,0,0,8,0,0,0,0,0,0,0,0,0,0,0,0,0,0,0,0,0,0,0,0,0,0,0,0,10,0,0,0,0,0,0,10,0,0,0,0,0,0,0,0,0,0,0,0,0,0,0,0,0,0,0,0,0,0,0,0,0,11,0,0,0,0,11,0,0,0,0,0,0,0,0,0,0,0,0,0,0,0,0,0,0,0,0,0,0,0,0,0,0,0,0,0,0,0,0,0,0,0,0,0,0,0,0,0,0,0,0,0,0,0,0,0,0,0,0,0,0,0,0,0,0,0,0,0,0,0,0,0,0,0,0,0,0,0,0,0,0,0,0,0,0,0,0,0,0,0,0,0
</data></layer><objectgroup id="3" name="Structures"><object id="1" name="bookshelf" type="prop" x="320.0" y="128.0" width="64" height="32"><properties><property name="image" value="../props/bookshelf.png" /><property name="anchor" value="bottom_tile_baseline" /><property name="variant_state" value="night" /><property name="mood" value="silent_night" /><property name="tile_x" type="int" value="5" /><property name="tile_y" type="int" value="4" /></properties></object><object id="2" name="desk" type="prop" x="448.0" y="192.0" width="64" height="32"><properties><property name="image" value="../props/desk.png" /><property name="anchor" value="bottom_tile_baseline" /><property name="variant_state" value="night" /><property name="mood" value="silent_night" /><property name="tile_x" type="int" value="7" /><property name="tile_y" type="int" value="6" /></properties></object><object id="3" name="scroll_pile" type="prop" x="576.0" y="160.0" width="64" height="32"><properties><property name="image" value="../props/scroll_pile.png" /><property name="anchor" value="bottom_tile_baseline" /><property name="variant_state" value="night" /><property name="mood" value="silent_night" /><property name="tile_x" type="int" value="9" /><property name="tile_y" type="int" value="5" /></properties></object><object id="4" name="secret_compartment" type="prop" x="640.0" y="288.0" width="64" height="32"><properties><property name="image" value="../props/secret_compartment.png" /><property name="anchor" value="bottom_tile_baseline" /><property name="variant_state" value="night" /><property name="mood" value="silent_night" /><property name="tile_x" type="int" value="10" /><property name="tile_y" type="int" value="9" /></properties></object></objectgroup><layer id="4" name="Overlay" width="16" height="16"><data encoding="csv">
0,0,0,0,0,0,0,0,0,0,0,0,0,0,0,0,0,0,0,0,0,0,0,0,0,0,0,0,0,0,0,0,0,0,0,0,0,0,0,0,0,0,0,0,0,0,0,0,0,0,0,0,0,0,0,0,0,0,0,0,0,0,0,0,0,0,0,0,0,0,0,0,0,0,0,0,0,0,0,0,0,0,0,0,0,0,0,0,0,0,0,0,0,0,0,0,0,0,0,0,0,0,0,0,0,0,0,0,0,0,0,0,0,0,0,0,0,0,0,0,0,0,0,0,0,0,0,0,0,0,0,0,0,0,0,0,0,0,0,0,0,0,0,0,0,0,0,0,0,0,0,0,0,0,0,0,0,0,0,0,0,0,0,0,0,0,0,0,0,0,0,0,0,0,0,0,0,0,0,0,0,0,0,0,0,0,0,0,0,0,0,0,0,0,0,0,0,0,0,0,0,0,0,0,0,0,0,0,0,0,0,0,0,0,0,0,0,0,0,0,0,0,0,0,0,0,0,0,0,0,0,0,0,0,0,0,0,0,0,0,0,0,0,0,0,0,0,0,0,0,0,0,0,0,0,0
</data></layer><layer id="5" name="Collision" width="16" height="16" visible="0" opacity="0.35"><data encoding="csv">
9,9,9,9,9,9,9,9,9,9,9,9,9,9,9,9,9,9,9,9,9,9,9,9,9,9,9,9,9,9,9,9,9,9,9,9,9,9,9,9,9,9,9,9,9,9,9,9,9,9,9,9,9,0,0,0,0,0,0,9,9,9,9,9,9,9,9,9,0,11,0,0,0,0,0,0,9,9,9,9,9,9,9,9,0,0,0,0,0,11,0,0,9,9,9,9,9,9,9,0,0,0,0,11,0,0,0,0,0,9,9,9,9,9,9,0,0,0,0,0,0,0,0,0,0,9,9,9,9,9,9,0,0,0,0,0,0,0,0,0,0,9,9,9,9,9,9,9,0,0,0,0,0,0,11,0,9,9,9,9,9,9,9,9,0,0,0,0,0,0,0,0,9,9,9,9,9,9,9,9,9,0,0,0,0,0,0,9,9,9,9,9,9,9,9,9,9,9,9,9,9,9,9,9,9,9,9,9,9,9,9,9,9,9,9,9,9,9,9,9,9,9,9,9,9,9,9,9,9,9,9,9,9,9,9,9,9,9,9,9,9,9,9,9,9,9,9,9,9,9,9,9,9,9,9,9
</data></layer><objectgroup id="6" name="LogicMarkers"><object id="15" name="exit_to_main_hall" type="exit" x="448.0" y="352.0" width="64" height="32"><properties><property name="id" value="exit_to_main_hall" /><property name="type" value="exit" /><property name="enabled" type="bool" value="true" /><property name="interaction_id" value="night.exit_to_main_hall" /><property name="chapter_state" value="prologue_massacre_trigger" /><property name="mood" value="silent_night" /><property name="tile_x" type="int" value="7" /><property name="tile_y" type="int" value="11" /><property name="target_scene" value="res://scenes/main_hall/MainHall.tscn" /><property name="entry_marker" value="entry_from_study" /></properties></object><object id="16" name="bookshelf_inspect" type="inspect" x="320.0" y="128.0" width="64" height="32"><properties><property name="id" value="bookshelf_inspect" /><property name="type" value="inspect" /><property name="enabled" type="bool" value="true" /><property name="interaction_id" value="night.bookshelf_inspect" /><property name="chapter_state" value="prologue_massacre_trigger" /><property name="mood" value="silent_night" /><property name="tile_x" type="int" value="5" /><property name="tile_y" type="int" value="4" /></properties></object><object id="17" name="desk_inspect" type="inspect" x="448.0" y="192.0" width="64" height="32"><properties><property name="id" value="desk_inspect" /><property name="type" value="inspect" /><property name="enabled" type="bool" value="true" /><property name="interaction_id" value="night.desk_inspect" /><property name="chapter_state" value="prologue_massacre_trigger" /><property name="mood" value="silent_night" /><property name="tile_x" type="int" value="7" /><property name="tile_y" type="int" value="6" /></properties></object><object id="18" name="secret_compartment_inspect" type="inspect" x="640.0" y="288.0" width="64" height="32"><properties><property name="id" value="secret_compartment_inspect" /><property name="type" value="inspect" /><property name="enabled" type="bool" value="true" /><property name="interaction_id" value="night.secret_compartment_inspect" /><property name="chapter_state" value="prologue_massacre_trigger" /><property name="mood" value="silent_night" /><property name="tile_x" type="int" value="10" /><property name="tile_y" type="int" value="9" /></properties></object><object id="19" name="entry_from_main_hall" type="entry" x="448.0" y="352.0" width="64" height="32"><properties><property name="id" value="entry_from_main_hall" /><property name="type" value="entry" /><property name="enabled" type="bool" value="true" /><property name="tile_x" type="int" value="7" /><property name="tile_y" type="int" value="11" /></properties></object></objectgroup></map>