<?xml version='1.0' encoding='UTF-8'?>
<map version="1.10" tiledversion="1.10.2" orientation="isometric" renderorder="right-down" width="16" height="16" tilewidth="64" tileheight="32" infinite="0" nextlayerid="7" nextobjectid="20"><properties><property name="scene_id" value="main_hall_day" /><property name="scene_name" value="正堂" /><property name="variant" value="day" /><property name="mood" value="warm_daily" /><property name="chapter_state" value="prologue_daily" /></properties><tileset firstgid="1" source="main_hall_ground_tiles.tsx" /><layer id="1" name="Ground" width="16" height="16"><data encoding="csv">
0,0,0,0,0,0,0,0,0,0,0,0,0,0,0,0,0,0,0,0,0,0,0,0,0,0,0,0,0,0,0,0,0,0,0,0,0,0,1,1,1,0,0,0,0,0,0,0,0,0,0,0,0,1,1,1,1,1,0,0,0,0,0,0,0,0,0,0,1,1,1,1,1,1,1,0,0,0,0,0,0,0,0,1,1,1,1,1,1,1,1,1,0,0,0,0,0,0,1,1,1,1,1,1,1,1,1,1,1,0,0,0,0,1,1,1,1,1,1,1,1,1,1,1,1,1,0,0,0,0,1,1,1,1,1,1,1,1,1,1,1,0,0,0,0,0,0,1,1,1,1,1,1,1,1,1,0,0,0,0,0,0,0,0,1,1,1,1,1,1,1,0,0,0,0,0,0,0,0,0,0,1,1,1,1,1,0,0,0,0,0,0,0,0,0,0,0,0,1,1,1,0,0,0,0,0,0,0,0,0,0,0,0,0,0,0,0,0,0,0,0,0,0,0,0,0,0,0,0,0,0,0,0,0,0,0,0,0,0,0,0,0,0,0,0,0,0,0,0,0,0,0,0,0,0,0
</data></layer><layer id="2" name="Terrain" width="16" height="16"><data encoding="csv">
0,0,0,0,0,0,0,0,0,0,0,0,0,0,0,0,0,0,0,0,0,0,0,0,0,0,0,0,0,0,0,0,0,0,0,0,0,0,0,0,0,0,0,0,0,0,0,0,0,0,0,0,0,0,0,0,0,0,0,0,0,0,0,0,0,0,0,0,0,0,0,6,0,0,0,0,0,0,0,0,0,0,0,0,0,0,7,7,7,0,0,0,0,0,0,0,0,0,0,0,0,8,8,0,8,8,0,0,0,0,0,0,0,0,0,0,0,0,0,0,0,0,0,0,0,0,0,0,0,0,0,0,0,10,10,0,10,10,0,0,0,0,0,0,0,0,0,0,0,0,11,11,11,0,0,0,0,0,0,0,0,0,0,0,0,0,0,6,0,0,0,0,0,0,0,0,0,0,0,0,0,0,0,0,0,0,0,0,0,0,0,0,0,0,0,0,0,0,0,0,0,0,0,0,0,0,0,0,0,0,0,0,0,0,0,0,0,0,0,0,0,0,0,0,0,0,0,0,0,0,0,0,0,0,0,0,0,0,0,0,0,0,0,0,0,0,0,0,0,0,0,0,0,0,0,0
</data></layer><objectgroup id="3" name="Structures"><object id="1" name="stone_wall_motto" type="prop" x="640.0" y="224.0" width="64" height="32"><properties><property name="image" value="../props/stone_wall_motto.png" /><property name="anchor" value="bottom_tile_baseline" /><property name="variant_state" value="day" /><property name="mood" value="warm_daily" /><property name="tile_x" type="int" value="10" /><property name="tile_y" type="int" value="7" /></properties></object><object id="2" name="weapon_rack" type="prop" x="192.0" y="224.0" width="64" height="32"><properties><property name="image" value="../props/weapon_rack.png" /><property name="anchor" value="bottom_tile_baseline" /><property name="variant_state" value="day" /><property name="mood" value="warm_daily" /><property name="tile_x" type="int" value="3" /><property name="tile_y" type="int" value="7" /></properties></object><object id="3" name="tea_table" type="prop" x="320.0" y="160.0" width="64" height="32"><properties><property name="image" value="../props/tea_table.png" /><property name="anchor" value="bottom_tile_baseline" /><property name="variant_state" value="day" /><property name="mood" value="warm_daily" /><property name="tile_x" type="int" value="5" /><property name="tile_y" type="int" value="5" /></properties></object><object id="4" name="chair" type="prop" x="320.0" y="128.0" width="64" height="32"><properties><property name="image" value="../props/chair.png" /><property name="anchor" value="bottom_tile_baseline" /><property name="variant_state" value="day" /><property name="mood" value="warm_daily" /><property name="tile_x" type="int" value="5" /><property name="tile_y" type="int" value="4" /></properties></object></objectgroup><layer id="4" name="Overlay" width="16" height="16"><data encoding="csv">
0,0,0,0,0,0,0,0,0,0,0,0,0,0,0,0,0,0,0,0,0,0,13,13,13,0,0,0,0,0,0,0,0,0,0,0,0,13,0,0,0,13,0,0,0,0,0,0,0,0,0,0,13,0,0,0,0,0,13,0,0,0,0,0,0,0,0,13,0,0,0,0,0,0,0,13,0,0,0,0,0,0,13,0,0,0,0,0,0,0,0,0,13,0,0,0,0,13,0,0,0,0,0,0,0,0,0,0,0,13,0,0,13,0,0,0,0,0,0,0,0,0,0,0,0,0,13,0,0,13,0,0,0,0,0,0,0,0,0,0,0,13,0,0,0,0,13,0,0,0,0,0,0,0,0,0,13,0,0,0,0,0,0,13,0,0,0,0,0,0,0,13,0,0,0,0,0,0,0,0,13,0,0,0,0,0,13,0,0,0,0,0,0,0,0,0,0,13,0,0,0,13,0,0,0,0,0,0,0,0,0,0,0,0,13,13,13,0,0,0,0,0,0,0,0,0,0,0,0,0,0,0,0,0,0,0,0,0,0,0,0,0,0,0,0,0,0,0,0,0,0,0,0,0,0,0
</data></layer><layer id="5" name="Collision" width="16" height="16" visible="0" opacity="0.35"><data encoding="csv">
9,9,9,9,9,9,9,9,9,9,9,9,9,9,9,9,9,9,9,9,9,9,9,9,9,9,9,9,9,9,9,9,9,9,9,9,9,9,0,0,0,9,9,9,9,9,9,9,9,9,9,9,9,0,0,0,0,0,9,9,9,9,9,9,9,9,9,9,0,11,0,0,0,0,0,9,9,9,9,9,9,9,9,0,0,11,0,0,0,0,0,0,9,9,9,9,9,9,0,0,0,0,0,0,0,0,0,0,0,9,9,9,9,0,0,11,0,0,0,0,0,0,11,0,0,0,9,9,9,9,0,0,0,0,0,0,0,0,0,0,0,9,9,9,9,9,9,0,0,0,0,0,0,0,0,0,9,9,9,9,9,9,9,9,0,0,0,0,0,0,0,9,9,9,9,9,9,9,9,9,9,0,0,0,0,0,9,9,9,9,9,9,9,9,9,9,9,9,0,0,0,9,9,9,9,9,9,9,9,9,9,9,9,9,9,9,9,9,9,9,9,9,9,9,9,9,9,9,9,9,9,9,9,9,9,9,9,9,9,9,9,9,9,9,9,9,9,9,9,9,9,9,9,9,9,9
</data></layer><objectgroup id="6" name="LogicMarkers"><object id="11" name="exit_to_courtyard" type="exit" x="448.0" y="352.0" width="64" height="32"><properties><property name="id" value="exit_to_courtyard" /><property name="type" value="exit" /><property name="enabled" type="bool" value="true" /><property name="interaction_id" value="day.exit_to_courtyard" /><property name="chapter_state" value="prologue_daily" /><property name="mood" value="warm_daily" /><property name="tile_x" type="int" value="7" /><property name="tile_y" type="int" value="11" /></properties></object><object id="12" name="stone_wall_inspect" type="inspect" x="640.0" y="224.0" width="64" height="32"><properties><property name="id" value="stone_wall_inspect" /><property name="type" value="inspect" /><property name="enabled" type="bool" value="true" /><property name="interaction_id" value="day.stone_wall_inspect" /><property name="chapter_state" value="prologue_daily" /><property name="mood" value="warm_daily" /><property name="tile_x" type="int" value="10" /><property name="tile_y" type="int" value="7" /></properties></object><object id="13" name="weapon_rack_inspect" type="inspect" x="192.0" y="224.0" width="64" height="32"><properties><property name="id" value="weapon_rack_inspect" /><property name="type" value="inspect" /><property name="enabled" type="bool" value="true" /><property name="interaction_id" value="day.weapon_rack_inspect" /><property name="chapter_state" value="prologue_daily" /><property name="mood" value="warm_daily" /><property name="tile_x" type="int" value="3" /><property name="tile_y" type="int" value="7" /></properties></object><object id="14" name="tea_table_interact" type="interactable" x="320.0" y="160.0" width="64" height="32"><properties><property name="id" value="tea_table_interact" /><property name="type" value="interactable" /><property name="enabled" type="bool" value="true" /><property name="interaction_id" value="day.tea_table_interact" /><property name="chapter_state" value="prologue_daily" /><property name="mood" value="warm_daily" /><property name="tile_x" type="int" value="5" /><property name="tile_y" type="int" value="5" /></properties></object><object id="15" name="master_talk" type="interactable" x="448.0" y="96.0" width="64" height="32"><properties><property name="id" value="master_talk" /><property name="type" value="interactable" /><property name="enabled" type="bool" value="true" /><property name="interaction_id" value="day.master_talk" /><property name="chapter_state" value="prologue_daily" /><property name="mood" value="warm_daily" /><property name="tile_x" type="int" value="7" /><property name="tile_y" type="int" value="3" /></properties></object></objectgroup></map>