<?xml version='1.0' encoding='UTF-8'?><map version="1.10" tiledversion="1.10.2" orientation="isometric" renderorder="right-down" width="16" height="16" tilewidth="64" tileheight="32" infinite="0" nextlayerid="7" nextobjectid="21"><properties><property name="scene_id" value="living_quarter_day" /><property name="scene_name" value="居所" /><property name="variant" value="day" /><property name="mood" value="warm_daily" /><property name="chapter_state" value="prologue_daily" /></properties><tileset firstgid="1" source="living_quarter_ground_tiles.tsx" /><layer id="1" name="Ground" width="16" height="16"><data encoding="csv">
0,0,0,0,0,0,0,0,0,0,0,0,0,0,0,0,0,0,0,0,0,0,0,0,0,0,0,0,0,0,0,0,0,0,0,0,0,0,0,0,0,0,0,0,0,0,0,0,0,0,0,0,0,1,1,1,1,1,1,0,0,0,0,0,0,0,0,0,1,1,1,1,1,1,1,1,0,0,0,0,0,0,0,0,1,1,1,1,1,1,1,1,0,0,0,0,0,0,0,1,1,1,1,1,1,1,1,1,1,0,0,0,0,0,0,1,1,1,1,1,1,1,1,1,1,0,0,0,0,0,0,1,1,1,1,1,1,1,1,1,1,0,0,0,0,0,0,0,1,1,1,1,1,1,1,1,0,0,0,0,0,0,0,0,1,1,1,1,1,1,1,1,0,0,0,0,0,0,0,0,0,1,1,1,1,1,1,0,0,0,0,0,0,0,0,0,0,0,0,0,0,0,0,0,0,0,0,0,0,0,0,0,0,0,0,0,0,0,0,0,0,0,0,0,0,0,0,0,0,0,0,0,0,0,0,0,0,0,0,0,0,0,0,0,0,0,0,0,0,0,0,0,0,0,0,0
</data></layer><layer id="2" name="Terrain" width="16" height="16"><data encoding="csv">
0,0,0,0,0,0,0,0,0,0,0,0,0,0,0,0,0,0,0,0,0,0,0,0,0,0,0,0,0,0,0,0,0,0,0,0,0,0,0,0,0,0,0,0,0,0,0,0,0,0,0,0,0,0,0,0,0,0,0,0,0,0,0,0,0,0,0,0,0,7,0,0,0,0,7,0,0,0,0,0,0,0,0,0,0,0,0,0,0,0,0,0,0,0,0,0,0,0,0,0,8,0,0,0,0,0,0,8,0,0,0,0,0,0,0,0,0,0,0,0,0,0,0,0,0,0,0,0,0,0,0,0,10,0,0,0,0,0,0,10,0,0,0,0,0,0,0,0,0,0,0,0,0,0,0,0,0,0,0,0,0,0,0,0,0,11,0,0,0,0,11,0,0,0,0,0,0,0,0,0,0,0,0,0,0,0,0,0,0,0,0,0,0,0,0,0,0,0,0,0,0,0,0,0,0,0,0,0,0,0,0,0,0,0,0,0,0,0,0,0,0,0,0,0,0,0,0,0,0,0,0,0,0,0,0,0,0,0,0,0,0,0,0,0,0,0,0,0,0,0,0,0,0,0,0,0
</data></layer><objectgroup id="3" name="Structures"><object id="1" name="bed_mat" type="prop" x="320.0" y="288.0" width="64" height="32"><properties><property name="image" value="../props/bed_mat.png" /><property name="anchor" value="bottom_tile_baseline" /><property name="variant_state" value="day" /><property name="mood" value="warm_daily" /><property name="tile_x" type="int" value="5" /><property name="tile_y" type="int" value="9" /></properties></object><object id="2" name="herb_drying_rack" type="prop" x="448.0" y="160.0" width="64" height="32"><properties><property name="image" value="../props/herb_drying_rack.png" /><property name="anchor" value="bottom_tile_baseline" /><property name="variant_state" value="day" /><property name="mood" value="warm_daily" /><property name="tile_x" type="int" value="7" /><property name="tile_y" type="int" value="5" /></properties></object><object id="3" name="herb_plant" type="prop" x="512.0" y="320.0" width="64" height="32"><properties><property name="image" value="../props/herb_plant.png" /><property name="anchor" value="bottom_tile_baseline" /><property name="variant_state" value="day" /><property name="mood" value="warm_daily" /><property name="tile_x" type="int" value="8" /><property name="tile_y" type="int" value="10" /></properties></object><object id="4" name="medicine_pot" type="prop" x="384.0" y="224.0" width="64" height="32"><properties><property name="image" value="../props/medicine_pot.png" /><property name="anchor" value="bottom_tile_baseline" /><property name="variant_state" value="day" /><property name="mood" value="warm_daily" /><property name="tile_x" type="int" value="6" /><property name="tile_y" type="int" value="7" /></properties></object></objectgroup><layer id="4" name="Overlay" width="16" height="16"><data encoding="csv">
0,0,0,0,0,0,0,0,0,0,0,0,0,0,0,0,0,0,0,0,0,0,0,0,0,0,0,0,0,0,0,0,0,0,0,0,0,0,0,0,0,0,0,0,0,0,0,0,0,0,0,0,0,0,0,0,0,0,0,0,0,0,0,0,0,0,0,0,0,0,0,0,0,0,0,0,0,0,0,0,0,0,0,0,0,0,0,0,0,0,0,0,0,0,0,0,0,0,0,0,0,0,0,0,0,0,0,0,0,0,0,0,0,0,0,0,0,0,0,0,0,0,0,0,0,0,0,0,0,0,0,0,0,0,0,0,0,0,0,0,0,0,0,0,0,0,0,0,0,0,0,0,0,0,0,0,0,0,0,0,0,0,0,0,0,0,0,0,0,0,0,0,0,0,0,0,0,0,0,0,0,0,0,0,0,0,0,0,0,0,0,0,0,0,0,0,0,0,0,0,0,0,0,0,0,0,0,0,0,0,0,0,0,0,0,0,0,0,0,0,0,0,0,0,0,0,0,0,0,0,0,0,0,0,0,0,0,0,0,0,0,0,0,0,0,0,0,0,0,0,0,0,0,0,0,0
</data></layer><layer id="5" name="Collision" width="16" height="16" visible="0" opacity="0.35"><data encoding="csv">
9,9,9,9,9,9,9,9,9,9,9,9,9,9,9,9,9,9,9,9,9,9,9,9,9,9,9,9,9,9,9,9,9,9,9,9,9,9,9,9,9,9,9,9,9,9,9,9,9,9,9,9,9,0,0,0,0,0,0,9,9,9,9,9,9,9,9,9,0,0,0,0,0,0,0,0,9,9,9,9,9,9,9,9,0,0,0,11,0,0,0,0,9,9,9,9,9,9,9,0,0,0,0,0,0,0,0,0,0,9,9,9,9,9,9,0,0,0,11,0,0,0,0,0,0,9,9,9,9,9,9,0,0,0,0,0,0,0,0,0,0,9,9,9,9,9,9,9,0,11,0,0,0,0,0,0,9,9,9,9,9,9,9,9,0,0,0,0,11,0,0,0,9,9,9,9,9,9,9,9,9,0,0,0,0,0,0,9,9,9,9,9,9,9,9,9,9,9,9,9,9,9,9,9,9,9,9,9,9,9,9,9,9,9,9,9,9,9,9,9,9,9,9,9,9,9,9,9,9,9,9,9,9,9,9,9,9,9,9,9,9,9,9,9,9,9,9,9,9,9,9,9,9,9,9,9
</data></layer><objectgroup id="6" name="LogicMarkers"><object id="15" name="exit_to_courtyard" type="exit" x="448.0" y="352.0" width="64" height="32"><properties><property name="id" value="exit_to_courtyard" /><property name="type" value="exit" /><property name="enabled" type="bool" value="true" /><property name="interaction_id" value="day.exit_to_courtyard" /><property name="chapter_state" value="prologue_daily" /><property name="mood" value="warm_daily" /><property name="tile_x" type="int" value="7" /><property name="tile_y" type="int" value="11" /><property name="target_scene" value="res://scenes/main_hall/MainHall.tscn" /><property name="entry_marker" value="entry_from_living" /></properties></object><object id="16" name="bed_mat_inspect" type="interactable" x="320.0" y="288.0" width="64" height="32"><properties><property name="id" value="bed_mat_inspect" /><property name="type" value="interactable" /><property name="enabled" type="bool" value="true" /><property name="interaction_id" value="day.bed_mat_inspect" /><property name="chapter_state" value="prologue_daily" /><property name="mood" value="warm_daily" /><property name="tile_x" type="int" value="5" /><property name="tile_y" type="int" value="9" /></properties></object><object id="17" name="herb_rack_inspect" type="inspect" x="448.0" y="160.0" width="64" height="32"><properties><property name="id" value="herb_rack_inspect" /><property name="type" value="inspect" /><property name="enabled" type="bool" value="true" /><property name="interaction_id" value="day.herb_rack_inspect" /><property name="chapter_state" value="prologue_daily" /><property name="mood" value="warm_daily" /><property name="tile_x" type="int" value="7" /><property name="tile_y" type="int" value="5" /></properties></object><object id="18" name="medicine_pot_inspect" type="inspect" x="384.0" y="224.0" width="64" height="32"><properties><property name="id" value="medicine_pot_inspect" /><property name="type" value="inspect" /><property name="enabled" type="bool" value="true" /><property name="interaction_id" value="day.medicine_pot_inspect" /><property name="chapter_state" value="prologue_daily" /><property name="mood" value="warm_daily" /><property name="tile_x" type="int" value="6" /><property name="tile_y" type="int" value="7" /></properties></object><object id="19" name="entry_from_main_hall" type="entry" x="448.0" y="352.0" width="64" height="32"><properties><property name="id" value="entry_from_main_hall" /><property name="type" value="entry" /><property name="enabled" type="bool" value="true" /><property name="tile_x" type="int" value="7" /><property name="tile_y" type="int" value="11" /></properties></object><object id="20" name="herb_plant_inspect" type="inspect" x="320.0" y="160.0" width="64" height="32"><properties><property name="id" value="herb_plant_inspect" /><property name="type" value="inspect" /><property name="enabled" type="bool" value="true" /><property name="interaction_id" value="day.herb_plant_inspect" /><property name="chapter_state" value="prologue_daily" /><property name="mood" value="warm_daily" /><property name="tile_x" type="int" value="5" /><property name="tile_y" type="int" value="5" /></properties></object></objectgroup></map>