<?xml version='1.0' encoding='UTF-8'?><map version="1.10" tiledversion="1.10.2" orientation="isometric" renderorder="right-down" width="16" height="16" tilewidth="64" tileheight="32" infinite="0" nextlayerid="7" nextobjectid="22"><properties><property name="scene_id" value="mountain_gate_day" /><property name="scene_name" value="山门" /><property name="variant" value="day" /><property name="mood" value="warm_daily" /><property name="chapter_state" value="prologue_daily" /></properties><tileset firstgid="1" source="mountain_gate_ground_tiles.tsx" /><layer id="1" name="Ground" width="16" height="16"><data encoding="csv">
0,0,0,0,0,0,0,0,0,0,0,0,0,0,0,0,0,0,0,0,0,0,0,0,0,0,0,0,0,0,0,0,0,0,0,0,0,0,0,0,0,0,0,0,0,0,0,0,0,0,0,0,0,1,1,1,1,1,1,0,0,0,0,0,0,0,0,0,1,1,1,1,1,1,1,1,0,0,0,0,0,0,0,0,1,1,1,1,1,1,1,1,0,0,0,0,0,0,0,1,1,1,1,1,1,1,1,1,1,0,0,0,0,0,0,1,1,1,1,1,1,1,1,1,1,0,0,0,0,0,0,1,1,1,1,1,1,1,1,1,1,0,0,0,0,0,0,1,1,1,1,1,1,1,1,1,1,0,0,0,0,0,0,0,1,1,1,1,1,1,1,1,0,0,0,0,0,0,0,0,1,1,1,1,1,1,1,1,0,0,0,0,0,0,0,0,0,1,1,1,1,1,1,0,0,0,0,0,0,0,0,0,0,0,0,0,0,0,0,0,0,0,0,0,0,0,0,0,0,0,0,0,0,0,0,0,0,0,0,0,0,0,0,0,0,0,0,0,0,0,0,0,0,0,0,0
</data></layer><layer id="2" name="Terrain" width="16" height="16"><data encoding="csv">
0,0,0,0,0,0,0,0,0,0,0,0,0,0,0,0,0,0,0,0,0,0,0,0,0,0,0,0,0,0,0,0,0,0,0,0,0,0,0,0,0,0,0,0,0,0,0,0,0,0,0,0,0,0,0,0,0,0,0,0,0,0,0,0,0,0,0,0,0,0,0,6,6,0,0,0,0,0,0,0,0,0,0,0,0,0,0,0,0,0,0,0,0,0,0,0,0,0,0,0,7,0,0,0,0,0,0,7,0,0,0,0,0,0,0,0,0,0,0,0,0,0,0,0,0,0,0,0,0,0,0,0,0,0,0,0,0,0,0,0,0,0,0,0,0,0,0,0,10,0,0,0,0,0,0,10,0,0,0,0,0,0,0,0,0,0,0,0,0,0,0,0,0,0,0,0,0,0,0,0,0,0,0,11,11,0,0,0,0,0,0,0,0,0,0,0,0,0,0,0,0,0,0,0,0,0,0,0,0,0,0,0,0,0,0,0,0,0,0,0,0,0,0,0,0,0,0,0,0,0,0,0,0,0,0,0,0,0,0,0,0,0,0,0,0,0,0,0,0,0,0,0,0,0,0,0
</data></layer><objectgroup id="3" name="Structures"><object id="1" name="gate_pillar_left" type="prop" x="384.0" y="128.0" width="64" height="32"><properties><property name="image" value="../props/gate_pillar_left.png" /><property name="anchor" value="bottom_tile_baseline" /><property name="variant_state" value="day" /><property name="mood" value="warm_daily" /><property name="tile_x" type="int" value="6" /><property name="tile_y" type="int" value="4" /></properties></object><object id="2" name="gate_pillar_right" type="prop" x="384.0" y="352.0" width="64" height="32"><properties><property name="image" value="../props/gate_pillar_right.png" /><property name="anchor" value="bottom_tile_baseline" /><property name="variant_state" value="day" /><property name="mood" value="warm_daily" /><property name="tile_x" type="int" value="6" /><property name="tile_y" type="int" value="11" /></properties></object><object id="3" name="gate_plaque" type="prop" x="320.0" y="224.0" width="64" height="32"><properties><property name="image" value="../props/gate_plaque.png" /><property name="anchor" value="bottom_tile_baseline" /><property name="variant_state" value="day" /><property name="mood" value="warm_daily" /><property name="tile_x" type="int" value="5" /><property name="tile_y" type="int" value="7" /></properties></object></objectgroup><layer id="4" name="Overlay" width="16" height="16"><data encoding="csv">
0,0,0,0,0,0,0,0,0,0,0,0,0,0,0,0,0,0,0,0,0,0,0,0,0,0,0,0,0,0,0,0,0,0,0,0,0,0,0,0,0,0,0,0,0,0,0,0,0,0,0,0,0,0,0,0,0,0,0,0,0,0,0,0,0,0,0,0,0,0,0,0,0,0,0,0,0,0,0,0,0,0,0,0,0,0,0,0,0,0,0,0,0,0,0,0,0,0,0,0,0,0,0,0,0,0,0,0,0,0,0,0,0,0,0,0,0,0,0,0,0,0,0,0,0,0,0,0,0,0,0,0,0,0,0,0,0,0,0,0,0,0,0,0,0,0,0,0,0,0,0,0,0,0,0,0,0,0,0,0,0,0,0,0,0,0,0,0,0,0,0,0,0,0,0,0,0,0,0,0,0,0,0,0,0,0,0,0,0,0,0,0,0,0,0,0,0,0,0,0,0,0,0,0,0,0,0,0,0,0,0,0,0,0,0,0,0,0,0,0,0,0,0,0,0,0,0,0,0,0,0,0,0,0,0,0,0,0,0,0,0,0,0,0,0,0,0,0,0,0,0,0,0,0,0,0
</data></layer><layer id="5" name="Collision" width="16" height="16" visible="0" opacity="0.35"><data encoding="csv">
9,9,9,9,9,9,9,9,9,9,9,9,9,9,9,9,9,9,9,9,9,9,9,9,9,9,9,9,9,9,9,9,9,9,9,9,9,9,9,9,9,9,9,9,9,9,9,9,9,9,9,9,9,0,0,0,0,0,0,9,9,9,9,9,9,9,9,9,0,0,11,0,0,0,0,0,9,9,9,9,9,9,9,9,0,0,0,0,0,0,0,0,9,9,9,9,9,9,9,0,0,0,0,0,0,0,0,0,0,9,9,9,9,9,9,0,0,11,0,0,0,0,0,0,0,9,9,9,9,9,9,0,0,0,0,0,0,0,0,0,0,9,9,9,9,9,9,0,0,0,0,0,0,0,0,0,0,9,9,9,9,9,9,9,0,0,0,0,0,0,0,0,9,9,9,9,9,9,9,9,0,0,11,0,0,0,0,0,9,9,9,9,9,9,9,9,9,0,0,0,0,0,0,9,9,9,9,9,9,9,9,9,9,9,9,9,9,9,9,9,9,9,9,9,9,9,9,9,9,9,9,9,9,9,9,9,9,9,9,9,9,9,9,9,9,9,9,9,9,9,9,9,9,9,9,9
</data></layer><objectgroup id="6" name="LogicMarkers"><object id="14" name="exit_to_courtyard" type="exit" x="448.0" y="384.0" width="64" height="32"><properties><property name="id" value="exit_to_courtyard" /><property name="type" value="exit" /><property name="enabled" type="bool" value="true" /><property name="interaction_id" value="day.exit_to_courtyard" /><property name="chapter_state" value="prologue_daily" /><property name="mood" value="warm_daily" /><property name="tile_x" type="int" value="7" /><property name="tile_y" type="int" value="12" /><property name="target_scene" value="res://scenes/main_hall/MainHall.tscn" /><property name="entry_marker" value="entry_from_gate" /></properties></object><object id="15" name="exit_to_back_mountain" type="exit" x="448.0" y="96.0" width="64" height="32"><properties><property name="id" value="exit_to_back_mountain" /><property name="type" value="exit" /><property name="enabled" type="bool" value="true" /><property name="interaction_id" value="day.exit_to_back_mountain" /><property name="chapter_state" value="prologue_daily" /><property name="mood" value="warm_daily" /><property name="tile_x" type="int" value="7" /><property name="tile_y" type="int" value="3" /><property name="target_scene" value="res://scenes/back_mountain_path/BackMountainPath.tscn" /><property name="entry_marker" value="entry_from_gate" /></properties></object><object id="16" name="gate_plaque_inspect" type="inspect" x="320.0" y="224.0" width="64" height="32"><properties><property name="id" value="gate_plaque_inspect" /><property name="type" value="inspect" /><property name="enabled" type="bool" value="true" /><property name="interaction_id" value="day.gate_plaque_inspect" /><property name="chapter_state" value="prologue_daily" /><property name="mood" value="warm_daily" /><property name="tile_x" type="int" value="5" /><property name="tile_y" type="int" value="7" /></properties></object><object id="17" name="gate_pillar_inspect" type="inspect" x="384.0" y="128.0" width="64" height="32"><properties><property name="id" value="gate_pillar_inspect" /><property name="type" value="inspect" /><property name="enabled" type="bool" value="true" /><property name="interaction_id" value="day.gate_pillar_inspect" /><property name="chapter_state" value="prologue_daily" /><property name="mood" value="warm_daily" /><property name="tile_x" type="int" value="6" /><property name="tile_y" type="int" value="4" /></properties></object><object id="18" name="entry_from_path" type="entry" x="448.0" y="96.0" width="64" height="32"><properties><property name="id" value="entry_from_path" /><property name="type" value="entry" /><property name="enabled" type="bool" value="true" /><property name="tile_x" type="int" value="7" /><property name="tile_y" type="int" value="3" /></properties></object><object id="19" name="entry_from_main_hall" type="entry" x="448.0" y="384.0" width="64" height="32"><properties><property name="id" value="entry_from_main_hall" /><property name="type" value="entry" /><property name="enabled" type="bool" value="true" /><property name="tile_x" type="int" value="7" /><property name="tile_y" type="int" value="12" /></properties></object><object id="20" name="entry_from_training" type="entry" x="320.0" y="224.0" width="64" height="32"><properties><property name="id" value="entry_from_training" /><property name="type" value="entry" /><property name="enabled" type="bool" value="true" /><property name="tile_x" type="int" value="5" /><property name="tile_y" type="int" value="7" /></properties></object><object id="21" name="exit_to_training_ground" type="exit" x="320.0" y="224.0" width="64" height="32"><properties><property name="id" value="exit_to_training_ground" /><property name="type" value="exit" /><property name="enabled" type="bool" value="true" /><property name="target_scene" value="res://scenes/training_ground/TrainingGround.tscn" /><property name="entry_marker" value="entry_from_main_hall" /><property name="tile_x" type="int" value="5" /><property name="tile_y" type="int" value="7" /></properties></object></objectgroup></map>