<?xml version='1.0' encoding='UTF-8'?><map version="1.10" tiledversion="1.10.2" orientation="isometric" renderorder="right-down" width="16" height="16" tilewidth="64" tileheight="32" infinite="0" nextlayerid="7" nextobjectid="21"><properties><property name="scene_id" value="back_mountain_path_night" /><property name="scene_name" value="后山小路" /><property name="variant" value="night" /><property name="mood" value="silent_night" /><property name="chapter_state" value="prologue_massacre_trigger" /></properties><tileset firstgid="1" source="back_mountain_path_ground_tiles.tsx" /><layer id="1" name="Ground" width="16" height="16"><data encoding="csv">
0,0,0,0,0,0,0,0,0,0,0,0,0,0,0,0,0,0,0,0,0,0,0,0,0,0,0,0,0,0,0,0,0,0,0,0,0,0,1,1,1,1,0,0,0,0,0,0,0,0,0,0,0,1,1,1,1,1,1,0,0,0,0,0,0,0,0,0,0,1,1,1,1,1,1,0,0,0,0,0,0,0,0,0,1,1,1,1,1,1,1,1,0,0,0,0,0,0,0,0,1,1,1,1,1,1,1,1,0,0,0,0,0,0,0,1,1,1,1,1,1,1,1,1,1,0,0,0,0,0,0,1,1,1,1,1,1,1,1,1,1,0,0,0,0,0,1,1,1,1,1,1,1,1,1,1,0,0,0,0,0,0,1,1,1,1,1,1,1,1,1,0,0,0,0,0,0,0,0,1,1,1,1,1,1,1,0,0,0,0,0,0,0,0,0,0,1,1,1,1,1,0,0,0,0,0,0,0,0,0,0,0,0,1,1,1,0,0,0,0,0,0,0,0,0,0,0,0,0,0,0,0,0,0,0,0,0,0,0,0,0,0,0,0,0,0,0,0,0,0,0,0,0,0,0,0
</data></layer><layer id="2" name="Terrain" width="16" height="16"><data encoding="csv">
0,0,0,0,0,0,0,0,0,0,0,0,0,0,0,0,0,0,0,0,0,0,0,0,0,0,0,0,0,0,0,0,0,0,0,0,0,0,0,0,0,0,0,0,0,0,0,0,0,0,0,0,0,0,7,0,0,7,0,0,0,0,0,0,0,0,0,0,0,0,0,0,0,0,0,0,0,0,0,0,0,0,0,0,0,8,0,0,0,0,8,0,0,0,0,0,0,0,0,0,0,0,0,0,0,0,0,0,0,0,0,0,0,0,0,0,6,0,0,0,0,0,0,6,0,0,0,0,0,0,0,0,0,0,0,0,0,0,0,0,0,0,0,0,0,0,0,7,0,0,0,0,0,0,7,0,0,0,0,0,0,0,0,0,0,0,0,0,0,0,0,0,0,0,0,0,0,0,0,0,8,0,0,0,8,0,0,0,0,0,0,0,0,0,0,0,0,0,0,0,0,0,0,0,0,0,0,0,0,0,0,0,0,0,0,0,0,0,0,0,0,0,0,0,0,0,0,0,0,0,0,0,0,0,0,0,0,0,0,0,0,0,0,0,0,0,0,0,0,0,0,0,0,0,0,0
</data></layer><objectgroup id="3" name="Structures"><object id="1" name="old_tree" type="prop" x="256.0" y="192.0" width="64" height="32"><properties><property name="image" value="../props/old_tree.png" /><property name="anchor" value="bottom_tile_baseline" /><property name="variant_state" value="night" /><property name="mood" value="silent_night" /><property name="tile_x" type="int" value="4" /><property name="tile_y" type="int" value="6" /></properties></object><object id="2" name="path_rock" type="prop" x="512.0" y="160.0" width="64" height="32"><properties><property name="image" value="../props/path_rock.png" /><property name="anchor" value="bottom_tile_baseline" /><property name="variant_state" value="night" /><property name="mood" value="silent_night" /><property name="tile_x" type="int" value="8" /><property name="tile_y" type="int" value="5" /></properties></object><object id="3" name="wild_grass" type="prop" x="384.0" y="320.0" width="64" height="32"><properties><property name="image" value="../props/wild_grass.png" /><property name="anchor" value="bottom_tile_baseline" /><property name="variant_state" value="night" /><property name="mood" value="silent_night" /><property name="tile_x" type="int" value="6" /><property name="tile_y" type="int" value="10" /></properties></object><object id="4" name="path_rock" type="prop" x="640.0" y="256.0" width="64" height="32"><properties><property name="image" value="../props/path_rock.png" /><property name="anchor" value="bottom_tile_baseline" /><property name="variant_state" value="night" /><property name="mood" value="silent_night" /><property name="tile_x" type="int" value="10" /><property name="tile_y" type="int" value="8" /></properties></object></objectgroup><layer id="4" name="Overlay" width="16" height="16"><data encoding="csv">
0,0,0,0,0,0,0,0,0,0,0,0,0,0,0,0,0,0,0,0,0,0,0,0,0,0,0,0,0,0,0,0,0,0,0,0,0,0,0,0,0,0,0,0,0,0,0,0,0,0,0,0,0,0,0,0,0,0,0,0,0,0,0,0,0,0,0,0,0,0,0,0,0,0,0,0,0,0,0,0,0,0,0,0,0,0,0,0,0,0,0,0,0,0,0,0,0,0,0,0,0,0,0,0,0,0,0,0,0,0,0,0,0,0,0,0,0,0,0,0,0,0,0,0,0,0,0,0,0,0,0,0,0,0,0,0,0,0,0,0,0,0,0,0,0,0,0,0,0,0,0,0,0,0,0,0,0,0,0,0,0,0,0,0,0,0,0,0,0,0,0,0,0,0,0,0,0,0,0,0,0,0,0,0,0,0,0,0,0,0,0,0,0,0,0,0,0,0,0,0,0,0,0,0,0,0,0,0,0,0,0,0,0,0,0,0,0,0,0,0,0,0,0,0,0,0,0,0,0,0,0,0,0,0,0,0,0,0,0,0,0,0,0,0,0,0,0,0,0,0,0,0,0,0,0,0
</data></layer><layer id="5" name="Collision" width="16" height="16" visible="0" opacity="0.35"><data encoding="csv">
9,9,9,9,9,9,9,9,9,9,9,9,9,9,9,9,9,9,9,9,9,9,9,9,9,9,9,9,9,9,9,9,9,9,9,9,9,9,0,0,0,0,9,9,9,9,9,9,9,9,9,9,9,0,0,0,0,0,0,9,9,9,9,9,9,9,9,9,9,0,0,0,0,0,0,9,9,9,9,9,9,9,9,9,0,0,0,0,11,0,0,0,9,9,9,9,9,9,9,9,11,0,0,0,0,0,0,0,9,9,9,9,9,9,9,0,0,0,0,0,0,0,0,0,0,9,9,9,9,9,9,0,0,0,0,0,0,0,11,0,0,9,9,9,9,9,0,0,0,0,0,0,0,0,0,0,9,9,9,9,9,9,0,0,0,0,11,0,0,0,0,9,9,9,9,9,9,9,9,0,0,0,0,0,0,0,9,9,9,9,9,9,9,9,9,9,0,0,0,0,0,9,9,9,9,9,9,9,9,9,9,9,9,0,0,0,9,9,9,9,9,9,9,9,9,9,9,9,9,9,9,9,9,9,9,9,9,9,9,9,9,9,9,9,9,9,9,9,9,9,9,9,9,9,9,9
</data></layer><objectgroup id="6" name="LogicMarkers"><object id="15" name="exit_to_mountain_gate" type="exit" x="448.0" y="64.0" width="64" height="32"><properties><property name="id" value="exit_to_mountain_gate" /><property name="type" value="exit" /><property name="enabled" type="bool" value="true" /><property name="interaction_id" value="night.exit_to_mountain_gate" /><property name="chapter_state" value="prologue_massacre_trigger" /><property name="mood" value="silent_night" /><property name="tile_x" type="int" value="7" /><property name="tile_y" type="int" value="2" /><property name="target_scene" value="res://scenes/mountain_gate/MountainGate.tscn" /><property name="entry_marker" value="entry_from_path" /></properties></object><object id="16" name="exit_to_cliff_cave" type="exit" x="320.0" y="416.0" width="64" height="32"><properties><property name="id" value="exit_to_cliff_cave" /><property name="type" value="exit" /><property name="enabled" type="bool" value="true" /><property name="interaction_id" value="night.exit_to_cliff_cave" /><property name="chapter_state" value="prologue_massacre_trigger" /><property name="mood" value="silent_night" /><property name="tile_x" type="int" value="5" /><property name="tile_y" type="int" value="13" /><property name="target_scene" value="res://scenes/back_mountain_cliff_cave/BackMountainCliffCave.tscn" /><property name="entry_marker" value="entry_from_path" /></properties></object><object id="17" name="old_tree_inspect" type="inspect" x="256.0" y="192.0" width="64" height="32"><properties><property name="id" value="old_tree_inspect" /><property name="type" value="inspect" /><property name="enabled" type="bool" value="true" /><property name="interaction_id" value="night.old_tree_inspect" /><property name="chapter_state" value="prologue_massacre_trigger" /><property name="mood" value="silent_night" /><property name="tile_x" type="int" value="4" /><property name="tile_y" type="int" value="6" /></properties></object><object id="18" name="entry_from_gate" type="entry" x="448.0" y="64.0" width="64" height="32"><properties><property name="id" value="entry_from_gate" /><property name="type" value="entry" /><property name="enabled" type="bool" value="true" /><property name="tile_x" type="int" value="7" /><property name="tile_y" type="int" value="2" /></properties></object><object id="19" name="entry_from_cliff_cave" type="entry" x="320.0" y="416.0" width="64" height="32"><properties><property name="id" value="entry_from_cliff_cave" /><property name="type" value="entry" /><property name="enabled" type="bool" value="true" /><property name="tile_x" type="int" value="5" /><property name="tile_y" type="int" value="13" /></properties></object><object id="20" name="path_rock_inspect" type="inspect" x="512.0" y="256.0" width="64" height="32"><properties><property name="id" value="path_rock_inspect" /><property name="type" value="inspect" /><property name="enabled" type="bool" value="true" /><property name="interaction_id" value="day.path_rock_inspect" /><property name="chapter_state" value="prologue_daily" /><property name="mood" value="warm_daily" /><property name="tile_x" type="int" value="8" /><property name="tile_y" type="int" value="8" /></properties></object></objectgroup></map>