<?xml version='1.0' encoding='UTF-8'?><map version="1.10" tiledversion="1.10.2" orientation="isometric" renderorder="right-down" width="16" height="16" tilewidth="64" tileheight="32" infinite="0" nextlayerid="7" nextobjectid="23"><properties><property name="scene_id" value="training_ground_day" /><property name="scene_name" value="练武场" /><property name="variant" value="day" /><property name="mood" value="warm_daily" /><property name="chapter_state" value="prologue_daily" /></properties><tileset firstgid="1" source="training_ground_ground_tiles.tsx" /><layer id="1" name="Ground" width="16" height="16"><data encoding="csv">
0,0,0,0,0,0,0,0,0,0,0,0,0,0,0,0,0,0,0,0,0,0,0,0,0,0,0,0,0,0,0,0,0,0,0,0,1,1,1,1,1,1,1,1,0,0,0,0,0,0,0,1,1,1,1,1,1,1,1,1,1,0,0,0,0,0,0,1,1,1,1,1,1,1,1,1,1,0,0,0,0,0,1,1,1,1,1,1,1,1,1,1,1,1,0,0,0,0,1,1,1,1,1,1,1,1,1,1,1,1,0,0,0,0,1,1,1,1,1,1,1,1,1,1,1,1,0,0,0,0,1,1,1,1,1,1,1,1,1,1,1,1,0,0,0,0,0,1,1,1,1,1,1,1,1,1,1,0,0,0,0,0,0,1,1,1,1,1,1,1,1,1,1,0,0,0,0,0,0,0,1,1,1,1,1,1,1,1,0,0,0,0,0,0,0,0,0,1,1,1,1,1,1,0,0,0,0,0,0,0,0,0,0,0,0,0,0,0,0,0,0,0,0,0,0,0,0,0,0,0,0,0,0,0,0,0,0,0,0,0,0,0,0,0,0,0,0,0,0,0,0,0,0,0,0,0
</data></layer><layer id="2" name="Terrain" width="16" height="16"><data encoding="csv">
0,0,0,0,0,0,0,0,0,0,0,0,0,0,0,0,0,0,0,0,0,0,0,0,0,0,0,0,0,0,0,0,0,0,0,0,0,0,0,0,0,0,0,0,0,0,0,0,0,0,0,0,0,0,0,6,6,0,0,0,0,0,0,0,0,0,0,0,0,0,0,0,0,0,0,0,0,0,0,0,0,0,0,7,0,0,0,0,0,0,0,0,7,0,0,0,0,0,0,0,0,0,0,0,0,0,0,0,0,0,0,0,0,0,0,0,0,0,0,0,0,0,0,0,0,0,0,0,0,0,0,10,0,0,0,0,0,0,0,0,10,0,0,0,0,0,0,0,0,0,0,0,0,0,0,0,0,0,0,0,0,0,0,0,0,0,0,11,11,0,0,0,0,0,0,0,0,0,0,0,0,0,0,0,0,0,0,0,0,0,0,0,0,0,0,0,0,0,0,0,0,0,0,0,0,0,0,0,0,0,0,0,0,0,0,0,0,0,0,0,0,0,0,0,0,0,0,0,0,0,0,0,0,0,0,0,0,0,0,0,0,0,0,0,0,0,0,0,0,0,0,0,0,0,0,0
</data></layer><objectgroup id="3" name="Structures"><object id="1" name="training_dummy" type="prop" x="384.0" y="160.0" width="64" height="32"><properties><property name="image" value="../props/training_dummy.png" /><property name="anchor" value="bottom_tile_baseline" /><property name="variant_state" value="day" /><property name="mood" value="warm_daily" /><property name="tile_x" type="int" value="6" /><property name="tile_y" type="int" value="5" /></properties></object><object id="2" name="training_dummy" type="prop" x="384.0" y="320.0" width="64" height="32"><properties><property name="image" value="../props/training_dummy.png" /><property name="anchor" value="bottom_tile_baseline" /><property name="variant_state" value="day" /><property name="mood" value="warm_daily" /><property name="tile_x" type="int" value="6" /><property name="tile_y" type="int" value="10" /></properties></object><object id="3" name="wooden_sword" type="prop" x="256.0" y="224.0" width="64" height="32"><properties><property name="image" value="../props/wooden_sword.png" /><property name="anchor" value="bottom_tile_baseline" /><property name="variant_state" value="day" /><property name="mood" value="warm_daily" /><property name="tile_x" type="int" value="4" /><property name="tile_y" type="int" value="7" /></properties></object><object id="4" name="stone_bench" type="prop" x="576.0" y="128.0" width="64" height="32"><properties><property name="image" value="../props/stone_bench.png" /><property name="anchor" value="bottom_tile_baseline" /><property name="variant_state" value="day" /><property name="mood" value="warm_daily" /><property name="tile_x" type="int" value="9" /><property name="tile_y" type="int" value="4" /></properties></object><object id="5" name="fence_post" type="prop" x="192.0" y="160.0" width="64" height="32"><properties><property name="image" value="../props/fence_post.png" /><property name="anchor" value="bottom_tile_baseline" /><property name="variant_state" value="day" /><property name="mood" value="warm_daily" /><property name="tile_x" type="int" value="3" /><property name="tile_y" type="int" value="5" /></properties></object><object id="6" name="fence_post" type="prop" x="192.0" y="320.0" width="64" height="32"><properties><property name="image" value="../props/fence_post.png" /><property name="anchor" value="bottom_tile_baseline" /><property name="variant_state" value="day" /><property name="mood" value="warm_daily" /><property name="tile_x" type="int" value="3" /><property name="tile_y" type="int" value="10" /></properties></object></objectgroup><layer id="4" name="Overlay" width="16" height="16"><data encoding="csv">
0,0,0,0,0,0,0,0,0,0,0,0,0,0,0,0,0,0,0,0,0,0,0,0,0,0,0,0,0,0,0,0,0,0,0,0,0,0,0,0,0,0,0,0,0,0,0,0,0,0,0,0,0,0,0,0,0,0,0,0,0,0,0,0,0,0,0,0,0,0,0,0,0,0,0,0,0,0,0,0,0,0,0,0,0,0,0,0,0,0,0,0,0,0,0,0,0,0,0,0,0,0,0,0,0,0,0,0,0,0,0,0,0,0,0,0,0,0,0,0,0,0,0,0,0,0,0,0,0,0,0,0,0,0,0,0,0,0,0,0,0,0,0,0,0,0,0,0,0,0,0,0,0,0,0,0,0,0,0,0,0,0,0,0,0,0,0,0,0,0,0,0,0,0,0,0,0,0,0,0,0,0,0,0,0,0,0,0,0,0,0,0,0,0,0,0,0,0,0,0,0,0,0,0,0,0,0,0,0,0,0,0,0,0,0,0,0,0,0,0,0,0,0,0,0,0,0,0,0,0,0,0,0,0,0,0,0,0,0,0,0,0,0,0,0,0,0,0,0,0,0,0,0,0,0,0
</data></layer><layer id="5" name="Collision" width="16" height="16" visible="0" opacity="0.35"><data encoding="csv">
9,9,9,9,9,9,9,9,9,9,9,9,9,9,9,9,9,9,9,9,9,9,9,9,9,9,9,9,9,9,9,9,9,9,9,9,0,0,0,0,0,0,0,0,9,9,9,9,9,9,9,0,0,0,0,0,0,0,0,0,0,9,9,9,9,9,9,0,0,0,0,0,0,11,0,0,0,9,9,9,9,9,0,11,0,0,11,0,0,0,0,0,0,0,9,9,9,9,0,0,0,0,0,0,0,0,0,0,0,0,9,9,9,9,0,0,11,0,0,0,0,0,0,0,0,0,9,9,9,9,0,0,0,0,0,0,0,0,0,0,0,0,9,9,9,9,9,0,0,0,0,0,0,0,0,0,0,9,9,9,9,9,9,11,0,0,11,0,0,0,0,0,0,9,9,9,9,9,9,9,0,0,0,0,0,0,0,0,9,9,9,9,9,9,9,9,9,0,0,0,0,0,0,9,9,9,9,9,9,9,9,9,9,9,9,9,9,9,9,9,9,9,9,9,9,9,9,9,9,9,9,9,9,9,9,9,9,9,9,9,9,9,9,9,9,9,9,9,9,9,9,9,9,9,9,9
</data></layer><objectgroup id="6" name="LogicMarkers"><object id="17" name="exit_to_courtyard" type="exit" x="448.0" y="384.0" width="64" height="32"><properties><property name="id" value="exit_to_courtyard" /><property name="type" value="exit" /><property name="enabled" type="bool" value="true" /><property name="interaction_id" value="day.exit_to_courtyard" /><property name="chapter_state" value="prologue_daily" /><property name="mood" value="warm_daily" /><property name="tile_x" type="int" value="7" /><property name="tile_y" type="int" value="12" /><property name="target_scene" value="res://scenes/main_hall/MainHall.tscn" /><property name="entry_marker" value="entry_from_training" /></properties></object><object id="18" name="training_dummy_inspect" type="interactable" x="384.0" y="160.0" width="64" height="32"><properties><property name="id" value="training_dummy_inspect" /><property name="type" value="interactable" /><property name="enabled" type="bool" value="true" /><property name="interaction_id" value="day.training_dummy_inspect" /><property name="chapter_state" value="prologue_daily" /><property name="mood" value="warm_daily" /><property name="tile_x" type="int" value="6" /><property name="tile_y" type="int" value="5" /></properties></object><object id="19" name="wooden_sword_inspect" type="interactable" x="256.0" y="224.0" width="64" height="32"><properties><property name="id" value="wooden_sword_inspect" /><property name="type" value="interactable" /><property name="enabled" type="bool" value="true" /><property name="interaction_id" value="day.wooden_sword_inspect" /><property name="chapter_state" value="prologue_daily" /><property name="mood" value="warm_daily" /><property name="tile_x" type="int" value="4" /><property name="tile_y" type="int" value="7" /></properties></object><object id="20" name="stone_bench_inspect" type="inspect" x="576.0" y="128.0" width="64" height="32"><properties><property name="id" value="stone_bench_inspect" /><property name="type" value="inspect" /><property name="enabled" type="bool" value="true" /><property name="interaction_id" value="day.stone_bench_inspect" /><property name="chapter_state" value="prologue_daily" /><property name="mood" value="warm_daily" /><property name="tile_x" type="int" value="9" /><property name="tile_y" type="int" value="4" /></properties></object><object id="21" name="entry_from_main_hall" type="entry" x="448.0" y="384.0" width="64" height="32"><properties><property name="id" value="entry_from_main_hall" /><property name="type" value="entry" /><property name="enabled" type="bool" value="true" /><property name="tile_x" type="int" value="7" /><property name="tile_y" type="int" value="12" /></properties></object><object id="22" name="fence_post_inspect" type="inspect" x="576.0" y="256.0" width="64" height="32"><properties><property name="id" value="fence_post_inspect" /><property name="type" value="inspect" /><property name="enabled" type="bool" value="true" /><property name="interaction_id" value="day.fence_post_inspect" /><property name="chapter_state" value="prologue_daily" /><property name="mood" value="warm_daily" /><property name="tile_x" type="int" value="9" /><property name="tile_y" type="int" value="8" /></properties></object></objectgroup></map>