<?xml version='1.0' encoding='UTF-8'?><map version="1.10" tiledversion="1.10.2" orientation="isometric" renderorder="right-down" width="32" height="28" tilewidth="128" tileheight="64" infinite="0" nextlayerid="7" nextobjectid="23"><properties><property name="scene_id" value="main_hall_night" /><property name="scene_name" value="正堂" /><property name="variant" value="night" /><property name="mood" value="silent_night" /><property name="chapter_state" value="prologue_massacre_trigger" /></properties><tileset firstgid="1" source="main_hall_ground_tiles.tsx" /><layer id="1" name="Ground" width="32" height="28"><data encoding="csv">
0,0,0,0,0,0,0,0,0,0,0,0,0,0,0,0,0,0,0,0,0,0,0,0,0,0,0,0,0,0,0,0,
0,0,0,0,0,0,0,0,0,0,0,0,0,0,0,0,0,0,0,0,0,0,0,0,0,0,0,0,0,0,0,0,
0,0,0,0,0,0,0,0,0,0,0,0,0,0,0,0,0,0,0,0,0,0,0,0,0,0,0,0,0,0,0,0,
0,0,0,0,0,0,0,0,0,0,0,0,1,1,1,1,1,1,1,1,0,0,0,0,0,0,0,0,0,0,0,0,
0,0,0,0,0,0,0,0,0,0,1,1,1,1,1,1,1,1,1,1,1,1,0,0,0,0,0,0,0,0,0,0,
0,0,0,0,0,0,0,0,0,1,1,1,1,1,1,1,1,1,1,1,1,1,1,0,0,0,0,0,0,0,0,0,
0,0,0,0,0,0,0,0,1,1,1,1,1,1,1,1,1,1,1,1,1,1,1,1,0,0,0,0,0,0,0,0,
0,0,0,0,0,0,0,1,1,1,1,1,1,1,1,1,1,1,1,1,1,1,1,1,1,0,0,0,0,0,0,0,
0,0,0,0,0,0,0,1,1,1,1,1,1,1,1,1,1,1,1,1,1,1,1,1,1,0,0,0,0,0,0,0,
0,0,0,0,0,0,1,1,1,1,1,1,1,1,1,1,1,1,1,1,1,1,1,1,1,1,0,0,0,0,0,0,
0,0,0,0,0,0,1,1,1,1,1,1,1,1,1,1,1,1,1,1,1,1,1,1,1,1,0,0,0,0,0,0,
0,0,0,0,0,0,1,1,1,1,1,1,1,1,1,1,1,1,1,1,1,1,1,1,1,1,0,0,0,0,0,0,
0,0,0,0,0,0,0,1,1,1,1,1,1,1,1,1,1,1,1,1,1,1,1,1,1,0,0,0,0,0,0,0,
0,0,0,0,0,0,0,1,1,1,1,1,1,1,1,1,1,1,1,1,1,1,1,1,1,0,0,0,0,0,0,0,
0,0,0,0,0,0,0,0,1,1,1,1,1,1,1,1,1,1,1,1,1,1,1,1,0,0,0,0,0,0,0,0,
0,0,0,0,0,0,0,0,0,1,1,1,1,1,1,1,1,1,1,1,1,1,1,0,0,0,0,0,0,0,0,0,
0,0,0,0,0,0,0,0,0,0,1,1,1,1,1,1,1,1,1,1,1,1,0,0,0,0,0,0,0,0,0,0,
0,0,0,0,0,0,0,0,0,0,0,1,1,1,1,1,1,1,1,1,1,0,0,0,0,0,0,0,0,0,0,0,
0,0,0,0,0,0,0,0,0,0,0,0,0,1,1,1,1,1,1,0,0,0,0,0,0,0,0,0,0,0,0,0,
0,0,0,0,0,0,0,0,0,0,0,0,0,0,1,1,1,1,0,0,0,0,0,0,0,0,0,0,0,0,0,0,
0,0,0,0,0,0,0,0,0,0,0,0,0,0,0,0,0,0,0,0,0,0,0,0,0,0,0,0,0,0,0,0,
0,0,0,0,0,0,0,0,0,0,0,0,0,0,0,0,0,0,0,0,0,0,0,0,0,0,0,0,0,0,0,0,
0,0,0,0,0,0,0,0,0,0,0,0,0,0,0,0,0,0,0,0,0,0,0,0,0,0,0,0,0,0,0,0,
0,0,0,0,0,0,0,0,0,0,0,0,0,0,0,0,0,0,0,0,0,0,0,0,0,0,0,0,0,0,0,0,
0,0,0,0,0,0,0,0,0,0,0,0,0,0,0,0,0,0,0,0,0,0,0,0,0,0,0,0,0,0,0,0,
0,0,0,0,0,0,0,0,0,0,0,0,0,0,0,0,0,0,0,0,0,0,0,0,0,0,0,0,0,0,0,0,
0,0,0,0,0,0,0,0,0,0,0,0,0,0,0,0,0,0,0,0,0,0,0,0,0,0,0,0,0,0,0,0,
0,0,0,0,0,0,0,0,0,0,0,0,0,0,0,0,0,0,0,0,0,0,0,0,0,0,0,0,0,0,0,0
</data></layer><layer id="2" name="Terrain" width="32" height="28"><data encoding="csv">
0,0,0,0,0,0,0,0,0,0,0,0,0,0,0,0,0,0,0,0,0,0,0,0,0,0,0,0,0,0,0,0,
0,0,0,0,0,0,0,0,0,0,0,0,0,0,0,0,0,0,0,0,0,0,0,0,0,0,0,0,0,0,0,0,
0,0,0,0,0,0,0,0,0,0,0,0,0,0,0,0,0,0,0,0,0,0,0,0,0,0,0,0,0,0,0,0,
0,0,0,0,0,0,0,0,0,0,0,0,0,0,0,0,0,0,0,0,0,0,0,0,0,0,0,0,0,0,0,0,
0,0,0,0,0,0,0,0,0,0,0,0,0,0,7,0,0,7,0,0,0,0,0,0,0,0,0,0,0,0,0,0,
0,0,0,0,0,0,0,0,0,0,0,0,0,0,0,0,0,0,0,0,0,0,0,0,0,0,0,0,0,0,0,0,
0,0,0,0,0,0,0,0,0,8,0,0,0,0,0,0,0,0,0,0,0,0,8,0,0,0,0,0,0,0,0,0,
0,0,0,0,0,0,0,0,0,0,0,0,0,0,0,0,0,0,0,0,0,0,0,0,0,0,0,0,0,0,0,0,
0,0,0,0,0,0,0,0,0,0,0,0,0,0,0,0,0,0,0,0,0,0,0,0,0,0,0,0,0,0,0,0,
0,0,0,0,0,0,0,0,10,0,0,0,0,0,0,0,0,0,0,0,0,0,0,10,0,0,0,0,0,0,0,0,
0,0,0,0,0,0,0,0,0,0,0,0,0,0,0,0,0,0,0,0,0,0,0,0,0,0,0,0,0,0,0,0,
0,0,0,0,0,0,0,0,0,0,0,0,0,0,0,0,0,0,0,0,0,0,0,0,0,0,0,0,0,0,0,0,
0,0,0,0,0,0,0,0,0,0,11,0,0,0,0,0,0,0,0,0,0,11,0,0,0,0,0,0,0,0,0,0,
0,0,0,0,0,0,0,0,0,0,0,0,0,0,0,0,0,0,0,0,0,0,0,0,0,0,0,0,0,0,0,0,
0,0,0,0,0,0,0,0,0,0,0,0,0,0,0,0,0,0,0,0,0,0,0,0,0,0,0,0,0,0,0,0,
0,0,0,0,0,0,0,0,0,0,0,0,0,0,0,0,0,0,0,0,0,0,0,0,0,0,0,0,0,0,0,0,
0,0,0,0,0,0,0,0,0,0,0,0,0,6,0,0,0,0,6,0,0,0,0,0,0,0,0,0,0,0,0,0,
0,0,0,0,0,0,0,0,0,0,0,0,0,0,0,0,0,0,0,0,0,0,0,0,0,0,0,0,0,0,0,0,
0,0,0,0,0,0,0,0,0,0,0,0,0,0,0,0,0,0,0,0,0,0,0,0,0,0,0,0,0,0,0,0,
0,0,0,0,0,0,0,0,0,0,0,0,0,0,0,0,0,0,0,0,0,0,0,0,0,0,0,0,0,0,0,0,
0,0,0,0,0,0,0,0,0,0,0,0,0,0,0,0,0,0,0,0,0,0,0,0,0,0,0,0,0,0,0,0,
0,0,0,0,0,0,0,0,0,0,0,0,0,0,0,0,0,0,0,0,0,0,0,0,0,0,0,0,0,0,0,0,
0,0,0,0,0,0,0,0,0,0,0,0,0,0,0,0,0,0,0,0,0,0,0,0,0,0,0,0,0,0,0,0,
0,0,0,0,0,0,0,0,0,0,0,0,0,0,0,0,0,0,0,0,0,0,0,0,0,0,0,0,0,0,0,0,
0,0,0,0,0,0,0,0,0,0,0,0,0,0,0,0,0,0,0,0,0,0,0,0,0,0,0,0,0,0,0,0,
0,0,0,0,0,0,0,0,0,0,0,0,0,0,0,0,0,0,0,0,0,0,0,0,0,0,0,0,0,0,0,0,
0,0,0,0,0,0,0,0,0,0,0,0,0,0,0,0,0,0,0,0,0,0,0,0,0,0,0,0,0,0,0,0,
0,0,0,0,0,0,0,0,0,0,0,0,0,0,0,0,0,0,0,0,0,0,0,0,0,0,0,0,0,0,0,0
</data></layer><objectgroup id="3" name="Structures"><object id="1" name="stone_wall_motto" type="prop" x="1024.0" y="160.0" width="64" height="32"><properties><property name="image" value="../props/stone_wall_motto.png" /><property name="anchor" value="bottom_tile_baseline" /><property name="variant_state" value="both" /><property name="mood" value="placeholder" /><property name="tile_x" type="int" value="16" /><property name="tile_y" type="int" value="5" /></properties></object><object id="2" name="weapon_rack" type="prop" x="640.0" y="320.0" width="64" height="32"><properties><property name="image" value="../props/weapon_rack.png" /><property name="anchor" value="bottom_tile_baseline" /><property name="variant_state" value="both" /><property name="mood" value="placeholder" /><property name="tile_x" type="int" value="10" /><property name="tile_y" type="int" value="10" /></properties></object><object id="3" name="tea_table" type="prop" x="1024.0" y="352.0" width="64" height="32"><properties><property name="image" value="../props/tea_table.png" /><property name="anchor" value="bottom_tile_baseline" /><property name="variant_state" value="both" /><property name="mood" value="placeholder" /><property name="tile_x" type="int" value="16" /><property name="tile_y" type="int" value="11" /></properties></object><object id="4" name="chair" type="prop" x="1152.0" y="352.0" width="64" height="32"><properties><property name="image" value="../props/chair.png" /><property name="anchor" value="bottom_tile_baseline" /><property name="variant_state" value="both" /><property name="mood" value="placeholder" /><property name="tile_x" type="int" value="18" /><property name="tile_y" type="int" value="11" /></properties></object><object id="5" name="blood_letter" type="prop" x="1088.0" y="448.0" width="64" height="32"><properties><property name="image" value="../props/blood_letter.png" /><property name="anchor" value="bottom_tile_baseline" /><property name="variant_state" value="both" /><property name="mood" value="placeholder" /><property name="tile_x" type="int" value="17" /><property name="tile_y" type="int" value="14" /></properties></object></objectgroup><layer id="4" name="Overlay" width="32" height="28"><data encoding="csv">
0,0,0,0,0,0,0,0,0,0,0,0,0,0,0,0,0,0,0,0,0,0,0,0,0,0,0,0,0,0,0,0,
0,0,0,0,0,0,0,0,0,0,0,0,0,0,0,0,0,0,0,0,0,0,0,0,0,0,0,0,0,0,0,0,
0,0,0,0,0,0,0,0,0,0,0,0,0,0,0,0,0,0,0,0,0,0,0,0,0,0,0,0,0,0,0,0,
0,0,0,0,0,0,0,0,0,0,0,0,0,0,0,0,0,0,0,0,0,0,0,0,0,0,0,0,0,0,0,0,
0,0,0,0,0,0,0,0,0,0,0,0,0,0,0,0,0,0,0,0,0,0,0,0,0,0,0,0,0,0,0,0,
0,0,0,0,0,0,0,0,0,0,0,0,0,0,0,0,0,0,0,0,0,0,0,0,0,0,0,0,0,0,0,0,
0,0,0,0,0,0,0,0,0,0,0,0,0,0,0,0,0,0,0,0,0,0,0,0,0,0,0,0,0,0,0,0,
0,0,0,0,0,0,0,0,0,0,0,0,0,0,0,0,0,0,0,0,0,0,0,0,0,0,0,0,0,0,0,0,
0,0,0,0,0,0,0,0,0,0,0,0,0,0,0,0,0,0,0,0,0,0,0,0,0,0,0,0,0,0,0,0,
0,0,0,0,0,0,0,0,0,0,0,0,0,0,0,0,0,0,0,0,0,0,0,0,0,0,0,0,0,0,0,0,
0,0,0,0,0,0,0,0,0,0,0,0,0,0,0,0,0,0,0,0,0,0,0,0,0,0,0,0,0,0,0,0,
0,0,0,0,0,0,0,0,0,0,0,0,0,0,0,0,0,0,0,0,0,0,0,0,0,0,0,0,0,0,0,0,
0,0,0,0,0,0,0,0,0,0,0,0,0,0,0,0,0,0,0,0,0,0,0,0,0,0,0,0,0,0,0,0,
0,0,0,0,0,0,0,0,0,0,0,0,0,0,0,0,0,0,0,0,0,0,0,0,0,0,0,0,0,0,0,0,
0,0,0,0,0,0,0,0,0,0,0,0,0,0,0,0,0,0,0,0,0,0,0,0,0,0,0,0,0,0,0,0,
0,0,0,0,0,0,0,0,0,0,0,0,0,0,0,0,0,0,0,0,0,0,0,0,0,0,0,0,0,0,0,0,
0,0,0,0,0,0,0,0,0,0,0,0,0,0,0,0,0,0,0,0,0,0,0,0,0,0,0,0,0,0,0,0,
0,0,0,0,0,0,0,0,0,0,0,0,0,0,0,0,0,0,0,0,0,0,0,0,0,0,0,0,0,0,0,0,
0,0,0,0,0,0,0,0,0,0,0,0,0,0,0,0,0,0,0,0,0,0,0,0,0,0,0,0,0,0,0,0,
0,0,0,0,0,0,0,0,0,0,0,0,0,0,0,0,0,0,0,0,0,0,0,0,0,0,0,0,0,0,0,0,
0,0,0,0,0,0,0,0,0,0,0,0,0,0,0,0,0,0,0,0,0,0,0,0,0,0,0,0,0,0,0,0,
0,0,0,0,0,0,0,0,0,0,0,0,0,0,0,0,0,0,0,0,0,0,0,0,0,0,0,0,0,0,0,0,
0,0,0,0,0,0,0,0,0,0,0,0,0,0,0,0,0,0,0,0,0,0,0,0,0,0,0,0,0,0,0,0,
0,0,0,0,0,0,0,0,0,0,0,0,0,0,0,0,0,0,0,0,0,0,0,0,0,0,0,0,0,0,0,0,
0,0,0,0,0,0,0,0,0,0,0,0,0,0,0,0,0,0,0,0,0,0,0,0,0,0,0,0,0,0,0,0,
0,0,0,0,0,0,0,0,0,0,0,0,0,0,0,0,0,0,0,0,0,0,0,0,0,0,0,0,0,0,0,0,
0,0,0,0,0,0,0,0,0,0,0,0,0,0,0,0,0,0,0,0,0,0,0,0,0,0,0,0,0,0,0,0,
0,0,0,0,0,0,0,0,0,0,0,0,0,0,0,0,0,0,0,0,0,0,0,0,0,0,0,0,0,0,0,0
</data></layer><layer id="5" name="Collision" width="32" height="28" visible="0" opacity="0.35"><data encoding="csv">
9,9,9,9,9,9,9,9,9,9,9,9,9,9,9,9,9,9,9,9,9,9,9,9,9,9,9,9,9,9,9,9,
9,9,9,9,9,9,9,9,9,9,9,9,9,9,9,9,9,9,9,9,9,9,9,9,9,9,9,9,9,9,9,9,
9,9,9,9,9,9,9,9,9,9,9,9,9,9,9,9,9,9,9,9,9,9,9,9,9,9,9,9,9,9,9,9,
9,9,9,9,9,9,9,9,9,9,9,9,0,0,0,0,0,0,0,0,9,9,9,9,9,9,9,9,9,9,9,9,
9,9,9,9,9,9,9,9,9,9,0,0,0,0,0,0,0,0,0,0,0,0,9,9,9,9,9,9,9,9,9,9,
9,9,9,9,9,9,9,9,9,0,0,0,0,0,0,0,11,0,0,0,0,0,0,9,9,9,9,9,9,9,9,9,
9,9,9,9,9,9,9,9,0,0,0,0,0,0,0,0,0,0,0,0,0,0,0,0,9,9,9,9,9,9,9,9,
9,9,9,9,9,9,9,0,0,0,0,0,0,0,0,0,0,0,0,0,0,0,0,0,0,9,9,9,9,9,9,9,
9,9,9,9,9,9,9,0,0,0,0,0,0,0,0,0,0,0,0,0,0,0,0,0,0,9,9,9,9,9,9,9,
9,9,9,9,9,9,0,0,0,0,0,0,0,0,0,0,0,0,0,0,0,0,0,0,0,0,9,9,9,9,9,9,
9,9,9,9,9,9,0,0,0,0,11,0,0,0,0,0,0,0,0,0,0,0,0,0,0,0,9,9,9,9,9,9,
9,9,9,9,9,9,0,0,0,0,0,0,0,0,0,0,11,0,11,0,0,0,0,0,0,0,9,9,9,9,9,9,
9,9,9,9,9,9,9,0,0,0,0,0,0,0,0,0,0,0,0,0,0,0,0,0,0,9,9,9,9,9,9,9,
9,9,9,9,9,9,9,0,0,0,0,0,0,0,0,0,0,0,0,0,0,0,0,0,0,9,9,9,9,9,9,9,
9,9,9,9,9,9,9,9,0,0,0,0,0,0,0,0,0,11,0,0,0,0,0,0,9,9,9,9,9,9,9,9,
9,9,9,9,9,9,9,9,9,0,0,0,0,0,0,0,0,0,0,0,0,0,0,9,9,9,9,9,9,9,9,9,
9,9,9,9,9,9,9,9,9,9,0,0,0,0,0,0,0,0,0,0,0,0,9,9,9,9,9,9,9,9,9,9,
9,9,9,9,9,9,9,9,9,9,9,0,0,0,0,0,0,0,0,0,0,9,9,9,9,9,9,9,9,9,9,9,
9,9,9,9,9,9,9,9,9,9,9,9,9,0,0,0,0,0,0,9,9,9,9,9,9,9,9,9,9,9,9,9,
9,9,9,9,9,9,9,9,9,9,9,9,9,9,0,0,0,0,9,9,9,9,9,9,9,9,9,9,9,9,9,9,
9,9,9,9,9,9,9,9,9,9,9,9,9,9,9,9,9,9,9,9,9,9,9,9,9,9,9,9,9,9,9,9,
9,9,9,9,9,9,9,9,9,9,9,9,9,9,9,9,9,9,9,9,9,9,9,9,9,9,9,9,9,9,9,9,
9,9,9,9,9,9,9,9,9,9,9,9,9,9,9,9,9,9,9,9,9,9,9,9,9,9,9,9,9,9,9,9,
9,9,9,9,9,9,9,9,9,9,9,9,9,9,9,9,9,9,9,9,9,9,9,9,9,9,9,9,9,9,9,9,
9,9,9,9,9,9,9,9,9,9,9,9,9,9,9,9,9,9,9,9,9,9,9,9,9,9,9,9,9,9,9,9,
9,9,9,9,9,9,9,9,9,9,9,9,9,9,9,9,9,9,9,9,9,9,9,9,9,9,9,9,9,9,9,9,
9,9,9,9,9,9,9,9,9,9,9,9,9,9,9,9,9,9,9,9,9,9,9,9,9,9,9,9,9,9,9,9,
9,9,9,9,9,9,9,9,9,9,9,9,9,9,9,9,9,9,9,9,9,9,9,9,9,9,9,9,9,9,9,9
</data></layer><objectgroup id="6" name="LogicMarkers"><object id="15" name="exit_to_courtyard" type="exit" x="1024.0" y="608.0" width="64" height="32"><properties><property name="id" value="exit_to_courtyard" /><property name="type" value="exit" /><property name="enabled" type="bool" value="true" /><property name="interaction_id" value="night.exit_to_courtyard" /><property name="chapter_state" value="prologue_massacre_trigger" /><property name="mood" value="silent_night" /><property name="tile_x" type="int" value="16" /><property name="tile_y" type="int" value="19" /><property name="target_scene" value="res://scenes/sect_compound/SectCompound.tscn" /><property name="entry_marker" value="entry_from_main_hall" /></properties></object><object id="16" name="exit_to_study" type="exit" x="1408.0" y="256.0" width="64" height="32"><properties><property name="id" value="exit_to_study" /><property name="type" value="exit" /><property name="enabled" type="bool" value="true" /><property name="interaction_id" value="night.exit_to_study" /><property name="chapter_state" value="prologue_massacre_trigger" /><property name="mood" value="silent_night" /><property name="tile_x" type="int" value="22" /><property name="tile_y" type="int" value="8" /><property name="target_scene" value="res://scenes/study/Study.tscn" /><property name="entry_marker" value="entry_from_main_hall" /></properties></object><object id="17" name="stone_wall_inspect" type="inspect" x="1024.0" y="224.0" width="64" height="32"><properties><property name="id" value="stone_wall_inspect" /><property name="type" value="inspect" /><property name="enabled" type="bool" value="true" /><property name="interaction_id" value="night.stone_wall_inspect" /><property name="chapter_state" value="prologue_massacre_trigger" /><property name="mood" value="silent_night" /><property name="tile_x" type="int" value="16" /><property name="tile_y" type="int" value="7" /></properties></object><object id="18" name="weapon_rack_inspect" type="inspect" x="704.0" y="320.0" width="64" height="32"><properties><property name="id" value="weapon_rack_inspect" /><property name="type" value="inspect" /><property name="enabled" type="bool" value="true" /><property name="interaction_id" value="night.weapon_rack_inspect" /><property name="chapter_state" value="prologue_massacre_trigger" /><property name="mood" value="silent_night" /><property name="tile_x" type="int" value="11" /><property name="tile_y" type="int" value="10" /></properties></object><object id="19" name="tea_table_interact" type="interactable" x="1024.0" y="384.0" width="64" height="32"><properties><property name="id" value="tea_table_interact" /><property name="type" value="interactable" /><property name="enabled" type="bool" value="true" /><property name="interaction_id" value="night.tea_table_interact" /><property name="chapter_state" value="prologue_massacre_trigger" /><property name="mood" value="silent_night" /><property name="tile_x" type="int" value="16" /><property name="tile_y" type="int" value="12" /></properties></object><object id="20" name="blood_letter_inspect" type="inspect" x="1152.0" y="448.0" width="64" height="32"><properties><property name="id" value="blood_letter_inspect" /><property name="type" value="inspect" /><property name="enabled" type="bool" value="true" /><property name="interaction_id" value="night.blood_letter_inspect" /><property name="chapter_state" value="prologue_massacre_trigger" /><property name="mood" value="silent_night" /><property name="tile_x" type="int" value="18" /><property name="tile_y" type="int" value="14" /></properties></object><object id="21" name="entry_from_compound" type="entry" x="1024.0" y="608.0" width="64" height="32"><properties><property name="id" value="entry_from_compound" /><property name="type" value="entry" /><property name="enabled" type="bool" value="true" /><property name="interaction_id" value="night.entry_from_compound" /><property name="chapter_state" value="prologue_massacre_trigger" /><property name="mood" value="silent_night" /><property name="tile_x" type="int" value="16" /><property name="tile_y" type="int" value="19" /></properties></object><object id="22" name="entry_from_study" type="entry" x="1344.0" y="288.0" width="64" height="32"><properties><property name="id" value="entry_from_study" /><property name="type" value="entry" /><property name="enabled" type="bool" value="true" /><property name="interaction_id" value="night.entry_from_study" /><property name="chapter_state" value="prologue_massacre_trigger" /><property name="mood" value="silent_night" /><property name="tile_x" type="int" value="21" /><property name="tile_y" type="int" value="9" /></properties></object></objectgroup></map>